!!!OTL: Die verkaufte Muellerin Es wollt ein Mueller frueh aufstehn,
!!!ARE: Europa, Mitteleuropa, Deutschland (BRD), Rheinland
!!!YOR: 4, S. 346
!!    1892 gedruckt in Neuwied
!!!SCT: Q0086Z
!!!YEM: Copyright 1995, estate of Helmut Schaffrath.
**kern
*ICvox
*Ivox
*M4/4
*k[f#]
*G:
{4g
=1
4g
4b
4dd
4b
=2
4.b
8a
4a}
{4a
=3
4a
4ee
4dd
4cc
=4
4.cc
8b
4b}
{4dd
=5
4dd
4dd
4b
4g
=6
4cc
4ee
4ee}
{4gg
=7
4ff#
4ee
4dd
4b
=8
2a
4g}
==
!!!AGN: Ballade, Menschenhandel, Rettung, Hinrichtung
!!!ONB: ESAC (Essen Associative Code) Database: BALLADE
!!!AMT: simple quadruple
!!!AIN: vox
!!!EED: Helmut Schaffrath
!!!EEV: 1.0
*-
